X: 2
T: ~
M: 6/8
L: 1/8
R: jig
K: Dmaj
|: (3G/A/B/ |\
Add Fdd | efg fed | Add Fdd | Bcd gBB | 
Add Fdd | edB Adf | age fdd | Bdc d2 :|
|: e |\
faa gfe | fAA ded | Bdc dGG | BGG G>AB |
Add Fdd | edB Adf | age fdd | Bdc d2 :|
